assets/img/braze_icons/currency-pound-circle.svg

<svg fill="none" height="24" viewBox="0 0 24 24" width="24" xmlns="http://www.w3.org/2000/svg"><path clip-rule="evenodd" d="m12 1c-6.07513 0-11 4.92487-11 11 0 6.0751 4.92487 11 11 11 6.0751 0 11-4.9249 11-11 0-6.07513-4.9249-11-11-11zm-1.1046 7.95579c.0015-.53776.158-.83779.323-1.01648.1773-.19218.452-.33734.8254-.4029.8078-.14181 1.6953.14618 2.0601.49267.4004.38036 1.0334.36409 1.4137-.03634.3804-.40043.3641-1.03338-.0363-1.41374-.8981-.85303-2.4586-1.24504-3.7833-1.01246-.6929.12163-1.4057.42726-1.94936 1.01632-.55544.60182-.85297 1.41174-.85337 2.37877l.00017.01318c.01286 1.00821.38769 1.70099.66214 2.20829l.01769.0327c.055.1017.10515.1955.15015.2842h-.72542c-.55228 0-1 .4477-1 1s.44772 1 1 1h.8979c-.15173.7615-.45342 1.4655-.77362 2.0463-.22484.4079-.44975.7385-.61669.965-.08318.1128-.15119.1987-.1965.2543-.02264.0277-.03954.0478-.04976.0598l-.01034.0121-.0008.0009c-.25977.2943-.32328.7136-.16216 1.0718.16145.3589.51842.5898.91199.5898h5.99998c.5523 0 1-.4477 1-1s-.4477-1-1-1h-4.1177c.4255-.774.8724-1.8141 1.0444-3h2.0733c.5523 0 1-.4477 1-1s-.4477-1-1-1h-2.1315c-.1338-.4958-.3455-.8872-.5179-1.2058l-.0159-.0294c-.2706-.50056-.4317-.81812-.4393-1.30901z" fill="#801ed7" fill-rule="evenodd"/></svg>

<svg width="24" height="24" viewBox="0 0 24 24" fill="none" xmlns="http://www.w3.org/2000/svg">
<path fill-rule="evenodd" clip-rule="evenodd" d="M12 1C5.92487 1 1 5.92487 1 12C1 18.0751 5.92487 23 12 23C18.0751 23 23 18.0751 23 12C23 5.92487 18.0751 1 12 1ZM10.8954 8.95579C10.8969 8.41803 11.0534 8.118 11.2184 7.93931C11.3957 7.74713 11.6704 7.60197 12.0438 7.53641C12.8516 7.3946 13.7391 7.68259 14.1039 8.02908C14.5043 8.40944 15.1373 8.39317 15.5176 7.99274C15.898 7.59231 15.8817 6.95936 15.4813 6.579C14.5832 5.72597 13.0227 5.33396 11.698 5.56654C11.0051 5.68817 10.2923 5.9938 9.74864 6.58286C9.1932 7.18468 8.89567 7.9946 8.89527 8.96163L8.89544 8.97481C8.9083 9.98302 9.28313 10.6758 9.55758 11.1831L9.57527 11.2158C9.63027 11.3175 9.68042 11.4113 9.72542 11.5H9C8.44772 11.5 8 11.9477 8 12.5C8 13.0523 8.44772 13.5 9 13.5H9.8979C9.74617 14.2615 9.44448 14.9655 9.12428 15.5463C8.89944 15.9542 8.67453 16.2848 8.50759 16.5113C8.42441 16.6241 8.3564 16.71 8.31109 16.7656C8.28845 16.7933 8.27155 16.8134 8.26133 16.8254L8.25099 16.8375L8.25019 16.8384C7.99042 17.1327 7.92691 17.552 8.08803 17.9102C8.24948 18.2691 8.60645 18.5 9.00002 18.5H15C15.5523 18.5 16 18.0523 16 17.5C16 16.9477 15.5523 16.5 15 16.5H10.8823C11.3078 15.726 11.7547 14.6859 11.9267 13.5H14C14.5523 13.5 15 13.0523 15 12.5C15 11.9477 14.5523 11.5 14 11.5H11.8685C11.7347 11.0042 11.523 10.6128 11.3506 10.2942L11.3347 10.2648C11.0641 9.76424 10.903 9.44668 10.8954 8.95579Z" fill="#801ED7"/>
</svg>
